icons/git-pull-request-24.svg

<svg width="24" height="24" viewBox="0 0 24 24" xmlns="http://www.w3.org/2000/svg">
  <path fill-rule="evenodd" clip-rule="evenodd" d="M4.75 3C3.7835 3 3 3.7835 3 4.75C3 5.7165 3.7835 6.5 4.75 6.5C5.7165 6.5 6.5 5.7165 6.5 4.75C6.5 3.7835 5.7165 3 4.75 3ZM1.5 4.75C1.5 2.95507 2.95507 1.5 4.75 1.5C6.54493 1.5 8 2.95507 8 4.75C8 6.54493 6.54493 8 4.75 8C2.95507 8 1.5 6.54493 1.5 4.75Z"/>
  <path fill-rule="evenodd" clip-rule="evenodd" d="M4.75 17.5C3.7835 17.5 3 18.2835 3 19.25C3 20.2165 3.7835 21 4.75 21C5.7165 21 6.5 20.2165 6.5 19.25C6.5 18.2835 5.7165 17.5 4.75 17.5ZM1.5 19.25C1.5 17.4551 2.95507 16 4.75 16C6.54493 16 8 17.4551 8 19.25C8 21.0449 6.54493 22.5 4.75 22.5C2.95507 22.5 1.5 21.0449 1.5 19.25Z"/>
  <path fill-rule="evenodd" clip-rule="evenodd" d="M19.25 17.5C18.2835 17.5 17.5 18.2835 17.5 19.25C17.5 20.2165 18.2835 21 19.25 21C20.2165 21 21 20.2165 21 19.25C21 18.2835 20.2165 17.5 19.25 17.5ZM16 19.25C16 17.4551 17.4551 16 19.25 16C21.0449 16 22.5 17.4551 22.5 19.25C22.5 21.0449 21.0449 22.5 19.25 22.5C17.4551 22.5 16 21.0449 16 19.25Z"/>
  <path fill-rule="evenodd" clip-rule="evenodd" d="M4.75 7.25C5.16421 7.25 5.5 7.58579 5.5 8L5.5 16C5.5 16.4142 5.16421 16.75 4.75 16.75C4.33579 16.75 4 16.4142 4 16L4 8C4 7.58579 4.33579 7.25 4.75 7.25Z"/>
  <path fill-rule="evenodd" clip-rule="evenodd" d="M13.4053 1.71967C13.6982 2.01256 13.6982 2.48744 13.4053 2.78033L12.1857 4H16.25C18.3211 4 20 5.67893 20 7.75V16.5C20 16.9142 19.6642 17.25 19.25 17.25C18.8358 17.25 18.5 16.9142 18.5 16.5V7.75C18.5 6.50736 17.4926 5.5 16.25 5.5H12.1857L13.4053 6.71967C13.6982 7.01256 13.6982 7.48744 13.4053 7.78033C13.1124 8.07322 12.6376 8.07322 12.3447 7.78033L9.84467 5.28033C9.55178 4.98744 9.55178 4.51256 9.84467 4.21967L12.3447 1.71967C12.6376 1.42678 13.1124 1.42678 13.4053 1.71967Z"/>
</svg>

<svg xmlns="http://www.w3.org/2000/svg" width="24" height="24" viewBox="0 0 24 24"><path fill-rule="evenodd" d="M4.75 3a1.75 1.75 0 100 3.5 1.75 1.75 0 000-3.5zM1.5 4.75a3.25 3.25 0 116.5 0 3.25 3.25 0 01-6.5 0zM4.75 17.5a1.75 1.75 0 100 3.5 1.75 1.75 0 000-3.5zM1.5 19.25a3.25 3.25 0 116.5 0 3.25 3.25 0 01-6.5 0zm17.75-1.75a1.75 1.75 0 100 3.5 1.75 1.75 0 000-3.5zM16 19.25a3.25 3.25 0 116.5 0 3.25 3.25 0 01-6.5 0z"/><path fill-rule="evenodd" d="M4.75 7.25A.75.75 0 015.5 8v8A.75.75 0 014 16V8a.75.75 0 01.75-.75zm8.655-5.53a.75.75 0 010 1.06L12.185 4h4.065A3.75 3.75 0 0120 7.75v8.75a.75.75 0 01-1.5 0V7.75a2.25 2.25 0 00-2.25-2.25h-4.064l1.22 1.22a.75.75 0 01-1.061 1.06l-2.5-2.5a.75.75 0 010-1.06l2.5-2.5a.75.75 0 011.06 0z"/></svg>
